X: 63
T:Sweet Georgia Brown
% Nottingham Music Database
S:Trad, via EF
M:4/4
L:1/4
K:G
"E7"EF ^G3/2E/2|B^G ^c3/2B/2|e2 B^G|E4|"A7"EF G3/2E/2|BG ^c3/2A/2|e2 ^cB|A4|
"D7"DE F3/2D/2|AF B3/2A/2|d2 AF|D4|"G"B4|BD "D7"E/2D/2E|"G"B3B|"B7"A3B|
"E7"EF ^G3/2E/2|B^G ^c3/2B/2|e2 B^G|E4|"A7"EF G3/2E/2|BG ^c3/2A/2|e2 ^cB|\
"A7"A2 "B7"B2|
"Em"B2 B2|"B7"AF BB|"Em"B2 B2|"B7"AF BB|"G"DE GA|"B7"d^d "E7"eB|"A7"A2 "D7"dB|\
"G"G3||<end>
<start>
